packages/foundations/assets/icons/functional/images/business & payment/generic_card_32.svg

<svg xmlns="http://www.w3.org/2000/svg" width="32" height="32" fill="none"><g clip-path="url(#a)"><path fill="#1A1C1F" fill-rule="evenodd" d="M27 6c1.656 0 3 1.375 3 3v14c0 1.656-1.375 3-3 3H5c-1.656 0-3-1.375-3-3V9a3 3 0 0 1 3-3zm1 8H4v9c0 .5.374 1 .875 1H27c.563 0 1-.469 1-1zm-1-6H5c-.563 0-1 .469-1 1v3h24V9c0-.563-.469-1-1-1" clip-rule="evenodd"/></g><defs><clipPath id="a"><path fill="#fff" d="M0 0h32v32H0z"/></clipPath></defs></svg>

<svg width="32" height="32" viewBox="0 0 32 32" fill="none" xmlns="http://www.w3.org/2000/svg">
<g clip-path="url(#clip0_184_42)">
<path fill-rule="evenodd" clip-rule="evenodd" d="M27 6C28.656 6 30 7.375 30 9V23C30 24.656 28.625 26 27 26H5C3.344 26 2 24.625 2 23V9C2 8.20435 2.31607 7.44129 2.87868 6.87868C3.44129 6.31607 4.20435 6 5 6H27ZM28 14H4V23C4 23.5 4.374 24 4.875 24H27C27.563 24 28 23.531 28 23V14ZM27 8H5C4.437 8 4 8.469 4 9V12H28V9C28 8.437 27.531 8 27 8Z" fill="#1A1C1F"/>
</g>
<defs>
<clipPath id="clip0_184_42">
<rect width="32" height="32" fill="white"/>
</clipPath>
</defs>
</svg>
